X:2
T:MUS240 Woodwind Trio
C:Ali Corbin
M:3/2
L:1/2
Q:1/2=100
K:Dmin
%%MIDI program 1 41 % Viola
%%MIDI program 2 41 % Viola
%%MIDI program 3 41 % Viola
V:Top name="Top" snm="Top"
z3|z3|z3|z3|z3|z3|dAd|ad'a|
gzc|dcB|A2z|G//A//B/c/de/|
V:Melody name="Melody" snm="Mel"
z3|z3|z3|z3|z2 D|D2 (C/2D/2)|F2 (G/2F/2)|D2 A|c2 (A/2G/2)|F2 G|A2
A|c2 (A/2G/2)|A2 (G/2F/2)|D2 (C/2A,/2)|C2 C|D2 (C/2D/2)|F2 (G/2F/2)|D2
A|c2 (A/2G/2)|A2 (G/2F/2)|D2 (C/2A,/2)|C2 ^C|D2 (^C/2D/2)|F2 (G/2F/2)|D3||
V:Respirator name="Respirator" snm="Res"
D3|F3|z3|D3|F3|z3|D3|F3|z3|D3|F3|
z3|D3|F3|z3|D3|F3|z3|D3|F3|z3|D3-|D3|_E3-|_E3||

